X:253
T:Captain Pugwash
T:Trumpet Hornpipe, The
S:many many sessions
R:Hornpipe
O:England
O:Ireland
O:Scotland
M:4/4
K:G
|:D2|\
"G"(3GGG G2 (3GGG Gd|BG Bd gd BG|\
"D"(3DDD D2 (3DDD DA|"D7"FD FA cA FD|\
"G"(3GGG G2 (3GGG Gd|BG Bd g2 g2|\
"D"fa gf "Em"eg fe|"D"d2d2 d2 ::\
Bc|\
"G"(3ddd d2 (3ddd d2|"Em"ef gf ed cB|\
"Am"cd ed cB AG|"D"FG AG FD EF|\
"G"(3GGG G2 "D"(3[FA][FA][FA] [F2A2]|\
"Em"(3[EB][EB][EB] [E2B2] "Cm"(3[_Ec][_Ec][_Ec] [_E2c2]|\
"D"dg fe dc BA|"G"G2B2 G2:|
